X:1
T:Shiroae
T:Shirohae
T:Naruto Shippuden
T:Notatio
T:Yasuharu Takanashi
T:Yasuharu Takanashi
C:Notatio
Z:Yasuharu Takanashi
%%score 1 ( 2 3 4 )
L:1/8
Q:1/4=110
M:4/4
K:C
V:1 treble-8 nm="Classical Guitar" snm="Guit."
V:2 treble-8 nm="Classical Guitar" snm="Guit."
V:3 treble-8 
V:4 treble-8 
V:1
 z4 z4 | z8 | z8 | z8 |{/G} A6 c2 | d6 e2 | A8- | A8 |{/G} A6 c2 | d6 g2 |{/d} e8- | %11
!mf!!<(! e4 e2 g2 | a8-!<)! |!ff!!>(! a4 g2 e2 | e8-!>)! |!mf! e8 | d6 e2 | B6 c2 | A8- | A8 | z8 | %21
 z8 |!f!{/d} e8 | c'8 | b4 a4 | g8 | a4 b4 | c'8 | e4 f4 | g8 |{/c} d8 | a8 | c'4 b4 | a4 e4 | b8 | %35
 g8 |!<(! a8 | c'4 b4!<)! |!f!{/d} e8 | c'8 | b4 a4 | g8 | a4 b4 | c'8 | e4 f4 | g8 |{/c} d8 | a8 | %48
 c'4 b4 | a8 | b8 | g8 | a8 | c'4 b4 | b8 | a8 | z8 | z8 |!mf!{/G} A6 c2 | d6 e2 | A8- | A8 | %62
 A6 c2 | d6 g2 | e8- | e4 e2 g2 | a8- | a4 g2 e2 | e8- | e8 | d6 e2 | B6 c2 | A8- | A8 |{/A} a8- | %75
 a8 |[Q:1/4=100] z8 |[Q:1/4=95] z8 | z8 | z8 | z8 | z8 |] %82
V:2
!mp! z2 z2 d2 E2 | c8 | z2 z2 B2 A2 | c8 |!mf! z2 E2 A4 | d2 A2 E4 | A2 C2 F2 C2 | E2 C2 D4 | %8
 A2 D2 A4 | G2 D2 A4 | c2 E2 c2 E2 |!mf!!mf!!<(! B8 | d2 A2 d2 A2!<)! |!ff!!>(! f8 | %14
 c2 E2 G2 E2!>)! |!mf! c8 | z2 D2 G4 | z2 D2 G4 | A2 F2 A2 F2 | c2 F2 A2 F2 | z2 F2 A2 F2 | c8 | %22
 z2 E2 [Ac]2 E2 | z2 E2 [Ac]2 E2 | z2 B,2 [GB]2 B,2 | z2 B,2 [GB]2 B,2 | z2 F2 [Ac]2 F2 | %27
 z2 F2 [Ac]2 F2 | z2 E2 [Gc]2 E2 | z2 E2 [Gc]2 E2 | z2 A2 [df]2 A2 | z2 A2 [df]2 A2 | %32
 z2 E2 [Ac]2 E2 | z2 E2 [Ac]2 E2 | z2 D2 [Gd]2 D2 | z2 D2 [Gd]2 D2 |!<(! z2 F2 [Ac]2 F2 | %37
 z2 D2 [Gd]2 D2!<)! |!f! z2 E2 [Ac]2 E2 | z2 E2 [Ac]2 E2 | z2 B,2 [GB]2 B,2 | z2 B,2 [GB]2 B,2 | %42
 z2 F2 [Ac]2 F2 | z2 F2 .[Ac]2 z2 | z2 E2 [Gc]2 E2 | z2 E2 [Gc]2 E2 | z2 A2 [df]2 A2 | %47
 z2 A2 [df]2 A2 | z2 E2 [Ac]2 E2 | z2 E2 [Ac]2 E2 | z2 D2 [Gd]2 D2 | z2 D2 [Gd]2 D2 | %52
 z2 F2 [Ac]2 F2 | z2 D2 [Gd]2 D2 | z2 z2 d2 E2 | c8 | z2 z2 B2 A2 | c8 |!mf! !arpeggio![A,EA]8- | %59
 [A,EA]8 | !arpeggio![F,CFA]8- | [F,CFA]8 | !arpeggio![DGd]8 | z2 D2 B2 D2 | z2 G2 c2 G2 | %65
 c2 B2 G2 E2 | d2 A2 d2 A2 | f8 | c2 E2 G2 E2 | c8 | z2 D2 G4 | z2 D2 G4 | A2 F2 A2 F2 | %73
 c2 F2 A2 F2 | z2 F2 A2 F2 | c2 F2 A2 F2 | A,2 E2 A2 E2 | c2 E2 A2 E2 | !arpeggio![A,EAc]8- | %79
 [A,EAc]8 | z8 | z8 |] %82
V:3
 A,8- | A,8 | A,8- | A,8 | A,8 | A,8 | F,8- | F,8 | G,8 | G,8 | C8- | C8 | D8- | D8 | C8- | C8 | %16
 G,8 | G,8 | F,8- | F,8 | F,8- | F,8 | A,8 | A,8 | E,8 | E,8 | F,8 | F,8 | C8 | C8 | D8 | D8 | %32
 A,8 | A,8 | G,8 | G,8 | F,8 | G,8 | A,8 | A,8 | E,8 | E,8 | F,8 | F,6 .A,.B, | C8 | C8 | D8 | D8 | %48
 A,8 | A,8 | G,8 | G,8 | F,8 | G,8 | A,8- | A,8 | A,8- | A,8 | x8 | x8 | x8 | x8 | !arpeggio!G,8 | %63
 G,8 | C8- | C8 | D8- | D8 | C8- | C8 | G,8 | G,8 | F,8- | F,8 | F,8- | F,8 | x8 | x8 | x8 | x8 | %80
 x8 | x8 |] %82
V:4
 x2 E4 z2 | x8 | x2 E4 z2 | x8 | x8 | x8 | x8 | x8 | x8 | x8 | x8 | x8 | x8 | x8 | x8 | x8 | x8 | %17
 x8 | x8 | x8 | x8 | x8 | x8 | x8 | x8 | x8 | x8 | x8 | x8 | x8 | x8 | x8 | x8 | x8 | x8 | x8 | %36
 x8 | x8 | x8 | x8 | x8 | x8 | x8 | x8 | x8 | x8 | x8 | x8 | x8 | x8 | x8 | x8 | x8 | x8 | %54
 x2 E4 z2 | x8 | x2 E4 z2 | x8 | x8 | x8 | x8 | x8 | x8 | x8 | x8 | x8 | x8 | x8 | x8 | x8 | x8 | %71
 x8 | x8 | x8 | x8 | x8 | x8 | x8 | x8 | x8 | x8 | x8 |] %82

